src/icons/logo.svg

<svg width="19" height="25" viewBox="0 0 19 25" fill="none" xmlns="http://www.w3.org/2000/svg">
<path fill-rule="evenodd" clip-rule="evenodd" d="M4.17035 0.682269C4.17035 0.682269 6.05386 1.94737 6.05386 4.26663C6.05386 8.2462 0.510986 12.6211 0.510986 16.7588C0.510986 21.2128 4.00897 24.0855 7.34546 24.9551C7.82982 25.0343 7.9912 24.5598 7.4262 24.4017C6.05386 24.0855 4.57397 22.3197 4.57397 19.6315C4.57397 17.075 7.10333 16.1263 8.07194 14.9404C9.12131 13.6752 8.87918 12.0676 8.23343 11.5932C7.58758 11.1189 8.07194 10.4863 9.12131 11.2769C10.1707 11.9885 11.0856 13.4381 10.7358 14.7031C10.3322 16.3634 10.8973 17.3386 11.7851 17.4967C12.6731 17.6549 13.6686 17.1805 13.561 16.3898C13.4534 15.5992 12.996 14.7295 13.2381 14.7295C13.884 14.7295 15.2024 16.2317 15.2024 18.7091C15.2024 21.1864 13.1575 22.8468 12.5116 23.4793C12.108 23.8746 12.5924 24.349 13.1575 24.1118C13.3996 24.0328 13.9646 23.7165 14.2876 23.4793C15.9019 22.3724 18.4313 20.0531 18.4313 15.8364C18.4313 11.3824 16.7361 9.3794 14.9333 7.71908C13.1575 6.05876 12.7269 6.45408 13.2381 7.32376C14.6911 9.8011 13.8032 10.6708 12.7539 10.6708C11.4623 10.6708 11.4623 7.87716 10.8703 5.74248C9.82088 0.972268 5.32737 0.155247 4.52014 0.0760984C3.92822 -0.187412 3.17482 0.286949 4.17035 0.682269Z" fill="#3F6D41"/>
</svg>

<svg xmlns="http://www.w3.org/2000/svg" width="19" height="25" fill="none"><path fill="#3F6D41" fill-rule="evenodd" d="M4.17.68s1.88 1.27 1.88 3.59c0 3.98-5.54 8.35-5.54 12.49 0 4.45 3.5 7.33 6.84 8.2.48.07.64-.4.08-.56-1.38-.31-2.86-2.08-2.86-4.77 0-2.55 2.53-3.5 3.5-4.69 1.05-1.26.8-2.87.16-3.35-.64-.47-.16-1.1.9-.31 1.04.7 1.96 2.16 1.6 3.42-.4 1.66.17 2.64 1.06 2.8.88.15 1.88-.32 1.77-1.11-.1-.8-.56-1.66-.32-1.66.64 0 1.96 1.5 1.96 3.98s-2.04 4.14-2.69 4.77c-.4.4.08.87.65.63a9 9 0 0 0 5.27-8.28c0-4.45-1.7-6.45-3.5-8.11-1.77-1.66-2.2-1.27-1.7-.4 1.46 2.48.57 3.35-.48 3.35-1.29 0-1.29-2.8-1.88-4.93C9.82.97 5.33.16 4.52.08c-.6-.27-1.35.2-.35.6z" clip-rule="evenodd"/></svg>
